X:328
T:Sean Coghlan's Kesh
R:jig
D:Begley & Cooney: Meitheal
Z:id:hn-jig-328
M:6/8
K:A
~A3 ABc|BcA Bce|fea fec|BAB BAF|
~A3 ABc|BcA Bce|fea fec|1 BAA Aec:|2 BAA A2B||
|:cAA cAA|fec eAA|cAA cAA|fec BAB|cAA cAA|1 fec eAA|
ABc BAB|cAA A2B:|2 faf ecB|ABc BAB|cAA Aec||

